X:1
T:Lingua di Donna
T:Benedetto Ferrari
T:Source : Musiche Varie a voce sola---Libro secondo---Venetia---B.Magni---1637. Editor : André Vierendeels (05/01/17).
T:Notes : Original clefs : C3, F4. From m 11 to m 13 BC notated in C4. Original note values have been halved Figures in BC are notated in original print 
T:Lingua di Donna
T:©
T:©
T:©
T:©
C:Benedetto Ferrari
Z:©
%%score 1 2
L:1/8
Q:1/4=108
M:6/4
K:F
V:1 treble-8 nm="Tenor" snm="T"
V:2 bass nm="MusicXML Part"
V:1
 c3 d _e2 f4 d2 | z2 f2 g2 _e2 e2 d2 | d4 c2 =B4 z2 | G2 A2 =B2 c4 A2 | A6 G2 gf _ed | %5
w: Lin- gua di Don- na,|gie- ni- tri- ce a-|ma- ra, _|al- lor piu fe- r'e|pun- ge quan- * * *|
w: De va- ghi fio- ri|d'un leg- gi- a- dro|vi- so, _|gio- i- sche chi gli|mi- ra, ma _ _ _|
w: Del mar d'in se- no|il mar- gi- ne di-|le- ta, _|ma chi lo var- ca'in|tan- to da _ _ _|
w: Sia bel- lo'un vi- so,|non far o si stol-|* to, _|ch'io mi ri- vol- g'al|lu- me, e'all' _ _ _|
 _e4 c2 f3 f g2 | _e3 d eA =B4 B2 | z2 G2 G2 A2 =B2 c2 | c2 =B2 c2 c6 :: z6 d2 _e2 f2 | %10
w: * do, quan- do piu|dol- * * * * ce|ti li- sin- ga e't|un- * * ge,|co- si can-|
w: poi so- ven- te'an- cor|pian- * * * * ge,|an- cor pian- ge e|so- spi- * ra,|co- si la|
w: duo sco- gli d'a- vo-|rio e rot- * * to,|d'a- vo- rio e rot-|to, e fran- to,|co- si al-|
w: bi- trio mio ar- da|le _ _ _ piu- me,|mio ar- * * da|le piu- * me,|io so ch'il|
 gf _ed cB AB cd ef | g4 g2 z2 f4- | f2 _e6 _d2 d2- | d4 c2 Tc4 c2 | B4 d2 _e3 f g_a | %15
w: tan- * * * * * * * * * * *|* do ahi|_ du- ra sor-|* te'av- vie- ne,|_ ch'in- gan- * * *|
w: ro- * * * * * * * * * * *|* sa por-|* po- ri- na,|_ e va- ga|coll' o- dor gio- * *|
w: ler- * * * * * * * * * * *|tan- do la|_ ma- ri- ti-|* * m'on- da|spez- za le na- * *|
w: ciel, _ _ _ _ _ che _ _ _ _ _|tan- to ne|_ di- * let-|* * * ta|im- pla- ca- * * *|
 f3 g _ab g2 ag f_e | d3 d _e4 e2 d2 | _e2 z f ef g6- | g2 A2 A2 A4 A2 | G2 z d cd _e6- | %20
w: |* ni- no i noc-|chier l'em- * * *|* pie Si- re- ne,|_ l'em- * * *|
w: |* va, _ e col-|le spi- * * *|* ne im- pia- ga,|_ spi- * * *|
w: |* vi, _ ei na-|vi- gan- * * *|* ti af- fon- da,|_ na- vi- * gan-|
w: |* bil, _ an- *|cor tu- * * o-|* na'e sa- et- ta,|_ tu- * * o-|
 e2 d2 d2 d4 d2 |[M:3/4] !fermata!c6 :| %22
w: * pie Si- re- ne.|_|
w: * ne im- pia- ga,|_|
w: * te af- fon da,|_|
w: * na'e sa- et- ta.|_|
V:2
"^BC" C6 B,6 | =B,6 C6 | ^F,6 G,6 | E,2 D,4 C,6 | D,6 G,,6 | C,6 =B,,6 |"^5 6" C,6 G,,6 | %7
 _E,,6 F,,6 | G,,6 C,,6 :: z2 G,F, G,A, B,6 | _E,6 F,G, A,B, CD | _E3 D CB, _A,6 | G,6 F,6 | %13
 _E,6 F,6 | B,2 B,,4 C,6 | D,6 _E,6 | B,2 _A,4 B,2 B,,4 | _E,6 D,6 | C,6 D,6 | G,,6 F,,6 | %20
 _E,,2 F,,4 G,,6 |[M:3/4] !fermata!C,6 :| %22

